X: 5
T:Tomgraney Castle
T:Humours of Tuamgreine, The
M:4/4
L:1/8
R:Hornpipe
K:Ador
cB[|:A2AB AGEG|AGAB cBcd|egfa gedc|B2G2 G2cB|!
A2AB AGEG|AGAB cBcd|(3efg fa gede|1c2A2 A2cB:|2c2A2 A2eg|]!
a2ab ageg|agab a2ge|dega gedc|B2G2 G2eg|!
a2ab ageg|agab a2ge|dega gede|c2A2 A2eg||!
a2ab ageg|agab a2ge|dega gedc|B2G2 G2cB|!
A2AB AGEG|AGAB cBcd|(3efg fa gede|c2A2 A2cB|]!
